X: 34253
T: Regal Rabbit, The
R: three-two
M: 3/2
K: Dmixolydian
D2ddd2D2c4|B3AG2B2A2F2|D2ddd2D2c4|B3AG2B2A4:|
DEFGA2D2c4|B3AG2B2A2F2|DEFGA2D2c4|B3AG2B2A4:|
FGAFd2A2c2B2|FGAFd2A2G4|FGAFd2A2c2B2|FGAF EFGE D2d2:|

